X:1
T:Version from Nielsen’s manuscript
T:Carl Nielsen (FS83/5)
T:N.F.S.Grundtvig 
T:Copyright (c) 2006 by Choral Public Domain Library (http://www.cpdl.org). Edition may be freely distributed, duplicated, performed or recorded.
T:Version from Nielsen’s manuscript
T:Copyright (c) 2006 by Choral Public Domain Library (http://www.cpdl.org). Edition may be freely distributed, duplicated, performed or recorded.
T:Copyright (c) 2006 by Choral Public Domain Library (http://www.cpdl.org). Edition may be freely distributed, duplicated, performed or recorded.
T:Copyright (c) 2006 by Choral Public Domain Library (http://www.cpdl.org). Edition may be freely distributed, duplicated, performed or recorded.
T:Copyright (c) 2006 by Choral Public Domain Library (http://www.cpdl.org). Edition may be freely distributed, duplicated, performed or recorded.
C:Carl Nielsen (FS83/5)
Z:N.F.S.Grundtvig
Z:
Z:
Z:Copyright (c) 2006 by Choral Public Domain Library (http://www.cpdl.org).
Z:Edition may be freely distributed, duplicated, performed or recorded.
%%score [ 1 2 3 4 ]
L:1/8
M:4/4
K:G
V:1 treble nm="S." snm="S."
V:2 treble nm="A." snm="A."
V:3 treble-8 transpose=-12 nm="T." snm="T."
V:4 bass nm="B." snm="B."
V:1
 D2 | G3 A F2 D2 | G4 A2 B2 | c2 (BA) G2 A2 | B6 d2 | A3 B c2 d2 | c4 B2 A2 | G3 A G2 E2 | F6 B,2 | %9
w: 1.~Der|er en Bøn paa|Jor- den, som,|be- det _ ret med|Fynd, kan|dæm- pe mer end|Tor- den, ud-|slet- ter Skyld og|Synd, ja,|
w: 2.~Den|Bøn har e- ne|Hjem- me hos|Guds en- * baar- ne|Søn, som|laa- ne vil sin|Stem- me til|he- le A- dams|Køn, vil|
 E3 F G2 A2 | F4 E2 D2 | G3 A B2 c2 | d4 c2 B2 | A3 B G2 F2 | !fermata!G6 |] D2 | G3 A F2 D2 | %17
w: dra- ger ned Guds|Ri- ge til|os og vo- re|Li- ge med|al dets Her- lig-|hed|1.~Der|er en Bøn paa|
w: det med sig for-|e- ne, saa|Gud faar Børn af|Ste- ne og|e- vig Pris af|Støv.|2.~Den|Bøn har e- ne|
 G4 A2 B2 | c2 (BA) G2 A2 | B6 d2 | A3 B c2 d2 | c4 B2 A2 | G3 A G2 E2 | F6 B,2 | E3 F G2 A2 | %25
w: Jor- den, som,|be- det _ ret med|Fynd, kan|dæm- pe mer end|Tor- den, ud-|slet- ter Skyld og|Synd, ja,|dra- ger ned Guds|
w: Hjem- me hos|Guds en- * baar- ne|Søn, som|laa- ne vil sin|Stem- me til|he- le A- dams|Køn, vil|det med sig for-|
 F4 E2 D2 | G3 A B2 c2 | d4 c2 B2 | A3 B G2 F2 | !fermata!G6 |] %30
w: Ri- ge til|os og vo- re|Li- ge med|al dets Her- lig-|hed|
w: e- ne, saa|Gud faar Børn af|Ste- ne og|e- vig Pris af|Støv.|
V:2
 D2 | D2 E2 D2 A,2 | E4 D2 D2 | E2 F2 E2 D2 | D6 D2 | F3 F G2 =F2 | E4 E2 C2 | E3 E E2 E2 | %8
w: 1.~Der|er en Bøn paa|Jor- den, som,|be- det ret med|Fynd, kan|dæm- pe mer end|Tor- den, ud-|slet- ter Skyld og|
w: 2.~Den|Bøn har e- ne|Hjem- me hos|Guds en- baar- ne|Søn, som|laa- ne vil sin|Stem- me til|he- le A- dams|
 (E2 ^D4) B,2 | B,3 ^D E2 E2 | =D4 C2 A,2 | D3 F G2 G2 | (A2 G2) E2 G2 | E3 E E2 D2 | %14
w: Synd, _ ja,|dra- ger ned Guds|Ri- ge til|os og vo- re|Li- * ge med|al dets Her- lig-|
w: Køn, * vil|det med sig for-|e- ne, saa|Gud faar Børn af|Ste- * ne og|e- vig Pris af|
 !fermata!D6 |] D2 | D2 E2 D2 A,2 | E4 E2 D2 | E2 F2 D2 F2 | D6 D2 | F3 F G2 =F2 | E4 E2 C2 | %22
w: hed|1.~Der|er en Bøn paa|Jor- den, som,|be- det ret med|Fynd, kan|dæm- pe mer end|Tor- den, ud-|
w: Støv.|2.~Den|Bøn har e- ne|Hjem- me hos|Guds en- baar- ne|Søn, som|laa- ne vil sin|Stem- me til|
 E3 E E2 E2 | (E2 ^C2 ^D2) B,2 | B,3 ^D E2 E2 | =D4 C2 A,2 | D3 F G2 G2 | (A2 G2) E2 G2 | %28
w: slet- ter Skyld og|Synd, _ _ ja,|dra- ger ned Guds|Ri- ge til|os og vo- re|Li- * ge med|
w: he- le A- dams|Køn, * * vil|det med sig for-|e- ne, saa|Gud faar Børn af|Ste- * ne og|
 E3 E E2 D2 | !fermata!D6 |] %30
w: al dets Her- lig-|hed|
w: e- vig Pris af|Støv.|
V:3
 B2 | B2 c2 A2 d2 | (d2 c2) A2 G2 | G2 d2 B2 A2 | (A2 GF) G2 G2 | d3 d c2 A2 | A4 ^G2 A2 | %7
w: 1.~Der|er en Bøn paa|Jor- * den, som,|be- det ret med|Fynd, _ _ _ kan|dæm- pe mer end|Tor- den, ud-|
w: 2.~Den|Bøn har e- ne|Hjem- * me hos|Guds en- baar- ne|Søn, _ _ _ som|laa- ne vil sin|Stem- me til|
 c3 c B2 B2 | B6 F2 | G3 B B2 c2 | (A2 B2) G2 F2 | B3 c d2 e2 | (d2 B2) c2 d2 | c3 B B2 A2 | %14
w: slet- ter Skyld og|Synd, ja,|dra- ger ned Guds|Ri- * ge til|os og vo- re|Li- * ge med|al dets Her- lig-|
w: he- le A- dams|Køn, vil|det med sig for-|e- * ne, saa|Gud faar Børn af|Ste- * ne og|e- vig Pris af|
 !fermata!B6 |] B2 | B2 c2 A2 d2 | (d2 cB) c2 B2 | G2 d2 B2 A2 | (A2 GF) G2 G2 | d3 d c2 A2 | %21
w: hed|1.~Der|er en Bøn paa|Jor- * * den, som,|be- det ret med|Fynd, _ _ _ kan|dæm- pe mer end|
w: Støv.|2.~Den|Bøn har e- ne|Hjem- * * me hos|Guds en- baar- ne|Søn, _ _ _ som|laa- ne vil sin|
 A4 ^G2 A2 | c3 c B2 B2 | B6 F2 | G3 B B2 c2 | (A2 B2) G2 F2 | B3 c d2 e2 | (d2 B2) c2 d2 | %28
w: Tor- den, ud-|slet- ter Skyld og|Synd, ja,|dra- ger ned Guds|Ri- * ge til|os og vo- re|Li- * ge med|
w: Stem- me til|he- le A- dams|Køn, vil|det med sig for-|e- * ne, saa|Gud faar Børn af|Ste- * ne og|
 c3 B B2 A2 | !fermata!B6 |] %30
w: al dets Her- lig-|hed|
w: e- vig Pris af|Støv.|
V:4
 G,2 | G,2 C,2 D,2 F,2 | E,4 F,2 G,2 | E,2 D,2 E,2 F,2 | B,,6 B,,2 | D,3 D, E,2 D,2 | %6
w: 1.~Der|er en Bøn paa|Jor- den, som,|be- det ret med|Fynd, kan|dæm- pe mer end|
w: 2.~Den|Bøn har e- ne|Hjem- me hos|Guds en- baar- ne|Søn, som|laa- ne vil sin|
 (A,,2 C,2) E,2 =F,2 | C,3 A,, E,2 G,2 | B,,6 ^D,2 | E,3 B,, E,2 C,2 | (D,2 B,,2) C,2 D,2 | %11
w: Tor- * den, ud-|slet- ter Skyld og|Synd, ja,|dra- ger ned Guds|Ri- * ge til|
w: Stem- * me til|he- le A- dams|Køn, vil|det med sig for-|e- * ne, saa|
 B,,3 A,, G,,2 E,,2 | (F,,2 G,,2) A,,2 B,,2 | C,3 G,, C,2 D,2 |"^rev.1(11/06)" !fermata!G,,6 |] %15
w: os og vo- re|Li- * ge med|al dets Her- lig-|hed|
w: Gud faar Børn af|Ste- * ne og|e- vig Pris af|Støv.|
 G,2 | G,2 C,2 D,2 F,2 | E,4 C,2 G,2 | E,2 D,2 G,2 D,2 | B,,6 B,,2 | D,3 D, E,2 D,2 | %21
w: 1.~Der|er en Bøn paa|Jor- den, som,|be- det ret med|Fynd, kan|dæm- pe mer end|
w: 2.~Den|Bøn har e- ne|Hjem- me hos|Guds en- baar- ne|Søn, som|laa- ne vil sin|
 (A,,2 C,2) E,2 =F,2 | C,3 A,, E,2 G,2 | B,,6 ^D,2 | E,3 B,, E,2 C,2 | (D,2 B,,2) C,2 D,2 | %26
w: Tor- * den, ud-|slet- ter Skyld og|Synd, ja,|dra- ger ned Guds|Ri- * ge til|
w: Stem- * me til|he- le A- dams|Køn, vil|det med sig for-|e- * ne, saa|
 B,,3 A,, G,,2 E,,2 | (F,,2 G,,2) A,,2 B,,2 | C,3 G,, C,2 D,2 | !fermata!G,,6 |] %30
w: os og vo- re|Li- * ge med|al dets Her- lig-|hed|
w: Gud faar Børn af|Ste- * ne og|e- vig Pris af|Støv.|

